assets/report/china-popculture/cp-to-top-icon.svg

<svg fill="none" height="23" viewBox="0 0 20 23" width="20" xmlns="http://www.w3.org/2000/svg"><path d="m10 22.917c.4951 0 .8506-.3428.8506-.8506v-14.23144l-.0635-2.74219 3.4531 3.69434 3.7325 3.71969c.165.1651.4062.2539.6474.2539.4824 0 .8379-.3554.8379-.8378 0-.2667-.1142-.4825-.3174-.6983l-8.5058-8.48046c-.1143-.12695-.2666-.21582-.419-.2666h8.4932c.5078 0 .8506-.35547.8506-.86328 0-.49512-.3428-.850588-.8506-.850588h-17.44338c-.495112 0-.837886.355468-.837886.850588 0 .50781.342774.86328.837886.86328h8.50586c-.15234.05078-.29199.13965-.41894.2666l-8.493165 8.48046c-.203125.2158-.317383.4316-.317383.6983 0 .4824.355469.8378.837888.8378.24121 0 .48242-.0888.64746-.2539l3.71973-3.71969 3.46582-3.70703-.07617 2.75488v14.23144c0 .5078.35547.8506.86328.8506z" fill="#6a6a6a"/></svg>

<svg width="20" height="23" viewBox="0 0 20 23" fill="none" xmlns="http://www.w3.org/2000/svg">
<path d="M10 22.917C10.4951 22.917 10.8506 22.5742 10.8506 22.0664V7.83496L10.7871 5.09277L14.2402 8.78711L17.9727 12.5068C18.1377 12.6719 18.3789 12.7607 18.6201 12.7607C19.1025 12.7607 19.458 12.4053 19.458 11.9229C19.458 11.6562 19.3438 11.4404 19.1406 11.2246L10.6348 2.74414C10.5205 2.61719 10.3682 2.52832 10.2158 2.47754H18.709C19.2168 2.47754 19.5596 2.12207 19.5596 1.61426C19.5596 1.11914 19.2168 0.763672 18.709 0.763672H1.26562C0.770508 0.763672 0.427734 1.11914 0.427734 1.61426C0.427734 2.12207 0.770508 2.47754 1.26562 2.47754H9.77148C9.61914 2.52832 9.47949 2.61719 9.35254 2.74414L0.859375 11.2246C0.65625 11.4404 0.541992 11.6562 0.541992 11.9229C0.541992 12.4053 0.897461 12.7607 1.37988 12.7607C1.62109 12.7607 1.8623 12.6719 2.02734 12.5068L5.74707 8.78711L9.21289 5.08008L9.13672 7.83496V22.0664C9.13672 22.5742 9.49219 22.917 10 22.917Z" fill="#6A6A6A"/>
</svg>
